X: 96
T: 96. Jesu, meine Freude
N: Derived from chor096.krn
C: Johann Sebastian Bach
%%abc-version 2.0
%%abcx-abcm2ps-target-version 5.9.1 (29 Sep 2008)
%%abc-creator hum2abc beta
%%abcx-conversion-date 2019/03/11 17:28:18
%%abc-edited-by Craig Stuart Sapp
%%humdrum-veritas 3459029588
%%humdrum-veritas-data 4157315808
%%
%%barnumbers 0
L: 1/8
M: C
%%staves [1 2 3 4]
V: 1 clef=treble
V: 2 clef=treble
V: 3 clef=treble-8
V: 4 clef=bass
K: F
[V:1] A2A2G2F2 | 
[V:2] F2F2E2D2 | 
[V:3] d2d2d^cd2 | 
[V:4] D,E, F,D,_B,2A,G, | 
[V:1] E4!fermata!D4 | 
[V:2] D2^C2!fermata!A,4 | 
[V:3] ABAG!fermata!F4 | 
[V:4] A,2A,,2!fermata!D,4 | 
[V:1] A2A2=B2^c2 | 
[V:2] F2F2FDG2 | 
[V:3] d2d2d=Be2 | 
[V:4] D,E, F,D,G,2F,E, | 
[V:1] d4!fermata!^c4 | 
[V:2] A2G2!fermata!A4 | 
[V:3] de/f/ ed!fermata!e4 | 
[V:4] F,G,/A,/_B,2!fermata!A,4 | 
[V:1] def2e2e2 | 
[V:2] A2A2_B2AG | 
[V:3] A2d2d2^c2 | 
[V:4] F,E,D,F, G,E,A,2 | 
[V:1] !fermata!d8 :|]  
[V:2] !fermata!F8 :|]  
[V:3] !fermata!A8 :|]  
[V:4] !fermata!D,8 :|]  
[V:1] A2A2B2A2 | 
[V:2] FGA2AGF2 | 
[V:3] d2d2d2c2 | 
[V:4] D,E, F,D,G,2A,B, | 
[V:1] GA/B/G2!fermata!F4 | 
[V:2] F2E2!fermata!C4 | 
[V:3] cABG!fermata!A4 | 
[V:4] C2C,2!fermata!F,4 | 
[V:1] A2=B2c2A2 | 
[V:2] F2F2G2E2 | 
[V:3] c2d2e2^c2 | 
[V:4] F,E,D,F, E,F,G,E, | 
[V:1] d2c=BB4 | 
[V:2] AE EF EFED | 
[V:3] A=B =cAA2^G2 | 
[V:4] ^F,^G, A,D,E,4 | 
[V:1] !fermata!A4A2d2 | 
[V:2] !fermata!^C4D2D2 | 
[V:3] !fermata!A4FG AF | 
[V:4] !fermata!A,,4D,E, F,D, | 
[V:1] G2FEE4 | 
[V:2] D^CD2DC/=B,/C2 | 
[V:3] G2AB AEAG | 
[V:4] B,2A,G,A,2A,,2 | 
[V:1] !fermata!D8 |]  
[V:2] !fermata!A,8 |]  
[V:3] !fermata!^F8 |]  
[V:4] !fermata!D,8 |]  



